Newaita-dark/apps/128/softwarecenter-ubuntu.svg

<?xml version="1.0" encoding="UTF-8"?>
<svg xmlns="http://www.w3.org/2000/svg" xmlns:xlink="http://www.w3.org/1999/xlink" width="128pt" height="128pt" viewBox="0 0 128 128" version="1.1">
<defs>
<linearGradient id="linear0" gradientUnits="userSpaceOnUse" x1="254" y1="233.5" x2="254" y2="254.666672" gradientTransform="matrix(0.250024,0,0,0.250024,-0.0000152602,53.75514)">
<stop offset="0" style="stop-color:rgb(0%,0%,0%);stop-opacity:0.27451;"/>
<stop offset="1" style="stop-color:rgb(0%,0%,0%);stop-opacity:0;"/>
</linearGradient>
<radialGradient id="radial0" gradientUnits="userSpaceOnUse" cx="450.908936" cy="189.579361" fx="450.908936" fy="189.579361" r="21.166656" gradientTransform="matrix(0.000000696681,-0.31253,-0.562554,-0.000000406154,212.49172,254.38133)">
<stop offset="0" style="stop-color:rgb(0%,0%,0%);stop-opacity:0.313725;"/>
<stop offset="0.222222" style="stop-color:rgb(0%,0%,0%);stop-opacity:0.27451;"/>
<stop offset="1" style="stop-color:rgb(0%,0%,0%);stop-opacity:0;"/>
</radialGradient>
<radialGradient id="radial1" gradientUnits="userSpaceOnUse" cx="450.908936" cy="189.579361" fx="450.908936" fy="189.579361" r="21.166656" gradientTransform="matrix(-0.000000696681,0.31253,0.562554,0.000000406154,-84.818081,-30.109915)">
<stop offset="0" style="stop-color:rgb(0%,0%,0%);stop-opacity:0.313725;"/>
<stop offset="0.222222" style="stop-color:rgb(0%,0%,0%);stop-opacity:0.27451;"/>
<stop offset="1" style="stop-color:rgb(0%,0%,0%);stop-opacity:0;"/>
</radialGradient>
<radialGradient id="radial2" gradientUnits="userSpaceOnUse" cx="450.908936" cy="189.579361" fx="450.908936" fy="189.579361" r="21.166656" gradientTransform="matrix(-0.000000696681,-0.31253,0.562554,-0.000000406154,-84.818081,254.38133)">
<stop offset="0" style="stop-color:rgb(0%,0%,0%);stop-opacity:0.313725;"/>
<stop offset="0.222222" style="stop-color:rgb(0%,0%,0%);stop-opacity:0.27451;"/>
<stop offset="1" style="stop-color:rgb(0%,0%,0%);stop-opacity:0;"/>
</radialGradient>
<radialGradient id="radial3" gradientUnits="userSpaceOnUse" cx="450.908936" cy="189.579361" fx="450.908936" fy="189.579361" r="21.166656" gradientTransform="matrix(0.000000696681,0.31253,-0.562554,0.000000406154,212.491714,-30.109917)">
<stop offset="0" style="stop-color:rgb(0%,0%,0%);stop-opacity:0.313725;"/>
<stop offset="0.222222" style="stop-color:rgb(0%,0%,0%);stop-opacity:0.27451;"/>
<stop offset="1" style="stop-color:rgb(0%,0%,0%);stop-opacity:0;"/>
</radialGradient>
<linearGradient id="linear1" gradientUnits="userSpaceOnUse" x1="254" y1="-168.666656" x2="254" y2="233.5" gradientTransform="matrix(0.250024,0,0,0.250024,0,53.755133)">
<stop offset="0" style="stop-color:rgb(100%,67.058824%,56.862745%);stop-opacity:1;"/>
<stop offset="1" style="stop-color:rgb(100%,54.117647%,39.607843%);stop-opacity:1;"/>
</linearGradient>
<linearGradient id="linear2" gradientUnits="userSpaceOnUse" x1="254" y1="-147.5" x2="254" y2="-126.333344" >
<stop offset="0" style="stop-color:rgb(47.45098%,33.333333%,28.235294%);stop-opacity:1;"/>
<stop offset="1" style="stop-color:rgb(55.294118%,43.137255%,38.823529%);stop-opacity:1;"/>
</linearGradient>
<linearGradient id="linear3" gradientUnits="userSpaceOnUse" x1="254" y1="138.25" x2="254" y2="-73.416664" gradientTransform="matrix(0.250024,0,0,0.250024,1.399797,53.755133)">
<stop offset="0" style="stop-color:rgb(93.333333%,93.333333%,93.333333%);stop-opacity:1;"/>
<stop offset="1" style="stop-color:rgb(98.039216%,98.039216%,98.039216%);stop-opacity:1;"/>
</linearGradient>
</defs>
<g id="surface1">
<path style=" stroke:none;fill-rule:nonzero;fill:url(#linear0);" d="M 20.507812 112.136719 L 107.167969 112.136719 L 107.167969 117.429688 L 20.507812 117.429688 Z M 20.507812 112.136719 "/>
<path style=" stroke:none;fill-rule:nonzero;fill:url(#radial0);" d="M 107.167969 112.136719 L 117.75 112.136719 L 117.75 106.84375 L 107.167969 106.84375 Z M 107.167969 112.136719 "/>
<path style=" stroke:none;fill-rule:nonzero;fill:url(#radial1);" d="M 20.507812 112.136719 L 9.921875 112.136719 L 9.921875 117.429688 L 20.507812 117.429688 Z M 20.507812 112.136719 "/>
<path style=" stroke:none;fill-rule:nonzero;fill:url(#radial2);" d="M 20.507812 112.136719 L 9.921875 112.136719 L 9.921875 106.84375 L 20.507812 106.84375 Z M 20.507812 112.136719 "/>
<path style=" stroke:none;fill-rule:nonzero;fill:url(#radial3);" d="M 107.167969 112.136719 L 117.75 112.136719 L 117.75 117.429688 L 107.167969 117.429688 Z M 107.167969 112.136719 "/>
<path style=" stroke:none;fill-rule:nonzero;fill:url(#linear1);" d="M 14.554688 11.585938 L 112.457031 11.585938 C 114.652344 11.585938 116.429688 13.363281 116.429688 15.554688 L 116.429688 108.167969 C 116.429688 110.359375 114.652344 112.136719 112.457031 112.136719 L 14.554688 112.136719 C 12.363281 112.136719 10.585938 110.359375 10.585938 108.167969 L 10.585938 15.554688 C 10.585938 13.363281 12.363281 11.585938 14.554688 11.585938 Z M 14.554688 11.585938 "/>
<path style=" stroke:none;fill-rule:nonzero;fill:rgb(0%,0%,0%);fill-opacity:0.196078;" d="M 10.585938 96.257812 L 116.429688 96.257812 L 116.429688 96.921875 L 10.585938 96.921875 Z M 10.585938 96.257812 "/>
<path style=" stroke:none;fill-rule:nonzero;fill:rgb(90.196079%,90.196079%,90.196079%);fill-opacity:0.588235;" d="M 10.585938 96.921875 L 116.429688 96.921875 L 116.429688 97.582031 L 10.585938 97.582031 Z M 10.585938 96.921875 "/>
<path style=" stroke:none;fill-rule:nonzero;fill:rgb(12.941177%,12.941177%,12.941177%);fill-opacity:0.992157;" d="M 10.585938 96.589844 L 116.429688 96.589844 L 116.429688 97.25 L 10.585938 97.25 Z M 10.585938 96.589844 "/>
<path style=" stroke:none;fill-rule:nonzero;fill:rgb(0%,0%,0%);fill-opacity:0.196078;" d="M 15.875 112.136719 C 12.945312 112.136719 10.585938 109.777344 10.585938 106.84375 L 10.585938 106.183594 C 10.585938 109.113281 12.945312 111.472656 15.875 111.472656 L 111.136719 111.472656 C 114.066406 111.472656 116.429688 109.113281 116.429688 106.183594 L 116.429688 106.84375 C 116.429688 109.777344 114.066406 112.136719 111.136719 112.136719 Z M 15.875 112.136719 "/>
<path style=" stroke:none;fill-rule:nonzero;fill:rgb(90.196079%,90.196079%,90.196079%);fill-opacity:0.588235;" d="M 15.875 11.585938 C 12.945312 11.585938 10.585938 13.945312 10.585938 16.875 L 10.585938 17.539062 C 10.585938 14.605469 12.945312 12.246094 15.875 12.246094 L 111.136719 12.246094 C 114.066406 12.246094 116.429688 14.605469 116.429688 17.539062 L 116.429688 16.875 C 116.429688 13.945312 114.066406 11.585938 111.136719 11.585938 Z M 15.875 11.585938 "/>
<path style=" stroke:none;fill-rule:nonzero;fill:rgb(0%,0%,0%);fill-opacity:0.196078;" d="M 15.875 112.136719 C 12.945312 112.136719 10.585938 109.777344 10.585938 106.84375 L 10.585938 106.183594 C 10.585938 109.113281 12.945312 111.472656 15.875 111.472656 L 111.136719 111.472656 C 114.066406 111.472656 116.429688 109.113281 116.429688 106.183594 L 116.429688 106.84375 C 116.429688 109.777344 114.066406 112.136719 111.136719 112.136719 Z M 15.875 112.136719 "/>
<path style=" stroke:none;fill-rule:nonzero;fill:rgb(90.196079%,90.196079%,90.196079%);fill-opacity:0.588235;" d="M 15.875 11.585938 C 12.945312 11.585938 10.585938 13.945312 10.585938 16.875 L 10.585938 17.539062 C 10.585938 14.605469 12.945312 12.246094 15.875 12.246094 L 111.136719 12.246094 C 114.066406 12.246094 116.429688 14.605469 116.429688 17.539062 L 116.429688 16.875 C 116.429688 13.945312 114.066406 11.585938 111.136719 11.585938 Z M 15.875 11.585938 "/>
<path style=" stroke:none;fill-rule:nonzero;fill:rgb(12.941177%,12.941177%,12.941177%);fill-opacity:1;" d="M 14.554688 11.210938 C 12.152344 11.210938 10.210938 13.152344 10.210938 15.554688 L 10.210938 108.167969 C 10.210938 110.566406 12.152344 112.511719 14.554688 112.511719 L 112.457031 112.511719 C 114.859375 112.511719 116.800781 110.566406 116.800781 108.167969 L 116.800781 15.554688 C 116.800781 13.152344 114.859375 11.210938 112.457031 11.210938 Z M 14.554688 11.960938 L 112.457031 11.960938 C 114.457031 11.960938 116.050781 13.554688 116.050781 15.554688 L 116.050781 108.167969 C 116.050781 110.164062 114.457031 111.761719 112.457031 111.761719 L 14.554688 111.761719 C 12.554688 111.761719 10.960938 110.164062 10.960938 108.167969 L 10.960938 15.554688 C 10.960938 13.554688 12.554688 11.960938 14.554688 11.960938 Z M 14.554688 11.960938 "/>
<path style="fill-rule:nonzero;fill:url(#linear2);stroke-width:3;stroke-linecap:square;stroke-linejoin:bevel;stroke:rgb(12.941177%,12.941177%,12.941177%);stroke-opacity:1;stroke-miterlimit:4;" d="M 84.66379 -147.506445 L 423.334574 -147.506445 C 429.177766 -147.506445 433.911689 -142.756899 433.911689 -136.913707 C 433.911689 -131.070515 429.177766 -126.336592 423.334574 -126.336592 L 84.66379 -126.336592 C 78.820598 -126.336592 74.086675 -131.070515 74.086675 -136.913707 C 74.086675 -142.756899 78.820598 -147.506445 84.66379 -147.506445 Z M 84.66379 -147.506445 " transform="matrix(0.250024,0,0,0.250024,0,53.755133)"/>
<path style=" stroke:none;fill-rule:nonzero;fill:url(#linear3);" d="M 75.113281 43.769531 C 77.480469 45.136719 80.507812 44.324219 81.875 41.957031 C 83.242188 39.589844 82.429688 36.5625 80.0625 35.195312 C 77.695312 33.828125 74.667969 34.640625 73.300781 37.007812 C 71.933594 39.375 72.746094 42.402344 75.113281 43.769531 Z M 64.980469 75.777344 C 62.804688 75.777344 60.742188 75.292969 58.890625 74.433594 L 55.449219 80.597656 C 58.324219 82.019531 61.558594 82.824219 64.980469 82.824219 C 66.972656 82.824219 68.898438 82.546875 70.726562 82.042969 C 71.050781 80.054688 72.230469 78.21875 74.113281 77.132812 C 75.992188 76.050781 78.167969 75.941406 80.046875 76.652344 C 83.710938 73.054688 86.089844 68.15625 86.4375 62.703125 L 79.382812 62.601562 C 78.734375 69.988281 72.535156 75.777344 64.980469 75.777344 Z M 64.980469 46.855469 C 72.535156 46.855469 78.734375 52.648438 79.382812 60.035156 L 86.4375 59.933594 C 86.089844 54.480469 83.707031 49.582031 80.046875 45.984375 C 78.164062 46.695312 75.992188 46.585938 74.113281 45.5 C 72.230469 44.414062 71.050781 42.582031 70.726562 40.59375 C 68.898438 40.089844 66.972656 39.8125 64.980469 39.8125 C 61.558594 39.8125 58.324219 40.617188 55.449219 42.039062 L 58.890625 48.203125 C 60.742188 47.339844 62.804688 46.855469 64.980469 46.855469 Z M 50.519531 61.316406 C 50.519531 56.425781 52.953125 52.105469 56.667969 49.488281 L 53.050781 43.425781 C 48.71875 46.320312 45.496094 50.742188 44.15625 55.925781 C 45.722656 57.203125 46.71875 59.140625 46.71875 61.316406 C 46.71875 63.492188 45.722656 65.433594 44.15625 66.710938 C 45.496094 71.890625 48.71875 76.316406 53.050781 79.210938 L 56.667969 73.148438 C 52.953125 70.53125 50.519531 66.210938 50.519531 61.316406 Z M 75.113281 78.867188 C 72.746094 80.234375 71.933594 83.261719 73.300781 85.628906 C 74.667969 87.996094 77.695312 88.804688 80.0625 87.4375 C 82.429688 86.074219 83.242188 83.046875 81.875 80.679688 C 80.507812 78.3125 77.480469 77.5 75.113281 78.867188 Z M 39.769531 56.367188 C 37.035156 56.367188 34.816406 58.582031 34.816406 61.316406 C 34.816406 64.050781 37.035156 66.269531 39.769531 66.269531 C 42.5 66.269531 44.71875 64.050781 44.71875 61.316406 C 44.71875 58.582031 42.5 56.367188 39.769531 56.367188 "/>
</g>
</svg>

<svg xmlns="http://www.w3.org/2000/svg" width="128pt" height="128pt" viewBox="0 0 128 128"><defs><linearGradient id="a" gradientUnits="userSpaceOnUse" x1="254" y1="233.5" x2="254" y2="254.667" gradientTransform="matrix(.25002 0 0 .25002 0 53.755)"><stop offset="0" stop-opacity=".275"/><stop offset="1" stop-opacity="0"/></linearGradient><radialGradient id="b" gradientUnits="userSpaceOnUse" cx="450.909" cy="189.579" fx="450.909" fy="189.579" r="21.167" gradientTransform="matrix(0 -.31253 -.56255 0 212.492 254.381)"><stop offset="0" stop-opacity=".314"/><stop offset=".222" stop-opacity=".275"/><stop offset="1" stop-opacity="0"/></radialGradient><radialGradient id="c" gradientUnits="userSpaceOnUse" cx="450.909" cy="189.579" fx="450.909" fy="189.579" r="21.167" gradientTransform="matrix(0 .31253 .56255 0 -84.818 -30.11)"><stop offset="0" stop-opacity=".314"/><stop offset=".222" stop-opacity=".275"/><stop offset="1" stop-opacity="0"/></radialGradient><radialGradient id="d" gradientUnits="userSpaceOnUse" cx="450.909" cy="189.579" fx="450.909" fy="189.579" r="21.167" gradientTransform="matrix(0 -.31253 .56255 0 -84.818 254.381)"><stop offset="0" stop-opacity=".314"/><stop offset=".222" stop-opacity=".275"/><stop offset="1" stop-opacity="0"/></radialGradient><radialGradient id="e" gradientUnits="userSpaceOnUse" cx="450.909" cy="189.579" fx="450.909" fy="189.579" r="21.167" gradientTransform="matrix(0 .31253 -.56255 0 212.492 -30.11)"><stop offset="0" stop-opacity=".314"/><stop offset=".222" stop-opacity=".275"/><stop offset="1" stop-opacity="0"/></radialGradient><linearGradient id="f" gradientUnits="userSpaceOnUse" x1="254" y1="-168.667" x2="254" y2="233.5" gradientTransform="matrix(.25002 0 0 .25002 0 53.755)"><stop offset="0" stop-color="#ffab91"/><stop offset="1" stop-color="#ff8a65"/></linearGradient><linearGradient id="g" gradientUnits="userSpaceOnUse" x1="254" y1="-147.5" x2="254" y2="-126.333"><stop offset="0" stop-color="#795548"/><stop offset="1" stop-color="#8d6e63"/></linearGradient><linearGradient id="h" gradientUnits="userSpaceOnUse" x1="254" y1="138.25" x2="254" y2="-73.417" gradientTransform="matrix(.25002 0 0 .25002 1.4 53.755)"><stop offset="0" stop-color="#eee"/><stop offset="1" stop-color="#fafafa"/></linearGradient></defs><path d="M20.508 112.137h86.66v5.293h-86.66zm0 0" fill="url(#a)"/><path d="M107.168 112.137h10.582v-5.293h-10.582zm0 0" fill="url(#b)"/><path d="M20.508 112.137H9.922v5.293h10.586zm0 0" fill="url(#c)"/><path d="M20.508 112.137H9.922v-5.293h10.586zm0 0" fill="url(#d)"/><path d="M107.168 112.137h10.582v5.293h-10.582zm0 0" fill="url(#e)"/><path d="M14.555 11.586h97.902a3.97 3.97 0 0 1 3.973 3.969v92.613a3.97 3.97 0 0 1-3.973 3.969H14.555a3.97 3.97 0 0 1-3.97-3.969V15.555a3.97 3.97 0 0 1 3.97-3.97zm0 0" fill="url(#f)"/><path d="M10.586 96.258H116.43v.664H10.586zm0 0" fill-opacity=".196"/><path d="M10.586 96.922H116.43v.66H10.586zm0 0" fill="#e6e6e6" fill-opacity=".588"/><path d="M10.586 96.59H116.43v.66H10.586zm0 0" fill="#212121" fill-opacity=".992"/><path d="M15.875 112.137c-2.93 0-5.29-2.36-5.29-5.293v-.66c0 2.93 2.36 5.289 5.29 5.289h95.262c2.93 0 5.293-2.36 5.293-5.29v.66a5.282 5.282 0 0 1-5.293 5.294zm0 0" fill-opacity=".196"/><path d="M15.875 11.586c-2.93 0-5.29 2.36-5.29 5.289v.664a5.279 5.279 0 0 1 5.29-5.293h95.262c2.93 0 5.293 2.36 5.293 5.293v-.664c0-2.93-2.364-5.29-5.293-5.29zm0 0" fill="#e6e6e6" fill-opacity=".588"/><path d="M15.875 112.137c-2.93 0-5.29-2.36-5.29-5.293v-.66c0 2.93 2.36 5.289 5.29 5.289h95.262c2.93 0 5.293-2.36 5.293-5.29v.66a5.282 5.282 0 0 1-5.293 5.294zm0 0" fill-opacity=".196"/><path d="M15.875 11.586c-2.93 0-5.29 2.36-5.29 5.289v.664a5.279 5.279 0 0 1 5.29-5.293h95.262c2.93 0 5.293 2.36 5.293 5.293v-.664c0-2.93-2.364-5.29-5.293-5.29zm0 0" fill="#e6e6e6" fill-opacity=".588"/><path d="M14.555 11.21a4.34 4.34 0 0 0-4.344 4.345v92.613a4.342 4.342 0 0 0 4.344 4.344h97.902a4.342 4.342 0 0 0 4.344-4.344V15.555a4.34 4.34 0 0 0-4.344-4.344zm0 .75h97.902c2 0 3.594 1.595 3.594 3.595v92.613a3.577 3.577 0 0 1-3.594 3.594H14.555c-2 0-3.594-1.598-3.594-3.594V15.555c0-2 1.594-3.594 3.594-3.594zm0 0" fill="#212121"/><path d="M84.664-147.506h338.67c5.844 0 10.578 4.75 10.578 10.592 0 5.843-4.734 10.577-10.577 10.577H84.664c-5.843 0-10.577-4.734-10.577-10.577s4.734-10.592 10.577-10.592zm0 0" transform="matrix(.25002 0 0 .25002 0 53.755)" fill="url(#g)" stroke-width="3" stroke-linecap="square" stroke-linejoin="bevel" stroke="#212121"/><path d="M75.113 43.77a4.95 4.95 0 1 0 4.95-8.575 4.95 4.95 0 0 0-4.95 8.575zM64.98 75.777c-2.175 0-4.238-.484-6.09-1.343l-3.44 6.164a21.44 21.44 0 0 0 9.53 2.226c1.993 0 3.918-.277 5.747-.781a6.94 6.94 0 0 1 3.386-4.91 6.943 6.943 0 0 1 5.934-.48 21.423 21.423 0 0 0 6.39-13.95l-7.054-.101c-.649 7.386-6.848 13.175-14.403 13.175zm0-28.922c7.555 0 13.754 5.793 14.403 13.18l7.055-.101a21.442 21.442 0 0 0-6.391-13.95 6.93 6.93 0 0 1-5.934-.484 6.934 6.934 0 0 1-3.386-4.906 21.592 21.592 0 0 0-5.747-.782 21.44 21.44 0 0 0-9.53 2.227l3.44 6.164a14.372 14.372 0 0 1 6.09-1.348zM50.52 61.316c0-4.89 2.433-9.21 6.148-11.828l-3.617-6.062a21.542 21.542 0 0 0-8.895 12.5 6.931 6.931 0 0 1 2.563 5.39 6.94 6.94 0 0 1-2.563 5.395 21.555 21.555 0 0 0 8.895 12.5l3.617-6.063c-3.715-2.617-6.148-6.937-6.148-11.832zm24.593 17.551a4.95 4.95 0 0 0 4.95 8.57 4.945 4.945 0 0 0 1.812-6.757 4.95 4.95 0 0 0-6.762-1.813zm-35.343-22.5a4.951 4.951 0 1 0-.004 9.903 4.951 4.951 0 0 0 .004-9.903" fill="url(#h)"/></svg>
